icon_installer/data/icons/scalable/actions/show-task-assigned-to-symbolic.svg

<?xml version="1.0" encoding="UTF-8"?>
<svg height="16px" viewBox="0 0 16 16" width="16px" xmlns="http://www.w3.org/2000/svg">
    <g fill="#2e3436">
        <path d="m 3 0 c -1.644531 0 -3 1.355469 -3 3 v 10 c 0 1.644531 1.355469 3 3 3 h 10 c 1.644531 0 3 -1.355469 3 -3 v -10 c 0 -1.644531 -1.355469 -3 -3 -3 z m 0 2 h 10 c 0.570312 0 1 0.429688 1 1 v 10 c 0 0.570312 -0.429688 1 -1 1 h -10 c -0.570312 0 -1 -0.429688 -1 -1 v -10 c 0 -0.570312 0.429688 -1 1 -1 z m 0 0"/>
        <path d="m 8 6 v 1.988281 h -6.585938 v 2 s 6.339844 0.003907 6.574219 0 h 0.011719 v 2.011719 h 1 v -0.007812 c 0.265625 0.003906 0.519531 -0.101563 0.707031 -0.285157 l 2 -2 c 0.390625 -0.390625 0.390625 -1.023437 0 -1.414062 l -2 -2 c -0.1875 -0.183594 -0.441406 -0.289063 -0.707031 -0.289063 v -0.003906 z m 0 0"/>
    </g>
</svg>

<svg xmlns="http://www.w3.org/2000/svg" width="16" height="16"><g fill="#2e3436"><path d="M3 0C1.355 0 0 1.355 0 3v10c0 1.645 1.355 3 3 3h10c1.645 0 3-1.355 3-3V3c0-1.645-1.355-3-3-3zm0 2h10c.57 0 1 .43 1 1v10c0 .57-.43 1-1 1H3c-.57 0-1-.43-1-1V3c0-.57.43-1 1-1zm0 0"/><path d="M8 6v1.988H1.414v2s6.34.004 6.574 0H8V12h1v-.008a.992.992 0 0 0 .707-.285l2-2a1 1 0 0 0 0-1.414l-2-2A1.012 1.012 0 0 0 9 6.003V6zm0 0"/></g></svg>
